!!!OTL: Youchun
!!!ARE: Asia, China,ÿHenan Shangcheng
!! IV, 110, 1)
!!!SCT: C1933
!!!YEM: Copyright 1995, estate of Helmut Schaffrath.
**kern
*ICvox
*Ivox
*M2/4
*k[b-e-]
*B-:
{16bb-
16ccc
8ddd
4ccc
=1
16ddd
16fff
16ddd
16ccc
8.bb-
16gg
=2
8gg
8ddd
8ccc
8bb-
=3
16gg
16bb-
16ff
16gg
4bb-}
=4
{16ccc
8bb-
16ccc
8ddd
16fff
16ddd
=5
8ccc
8bb-
8ccc
8gg
=6
8dd
8ff
8gg
8ccc
=7
16bb-
16ccc
16bb-
16gg
4ff//}
==
!!!AGN: Xiaodiao, Kanxi diao
!!!AMT: simple duple
!!!AIN: vox
!!!EED: Helmut Schaffrath
!!!EEV: 1.0
*-
